X: 1
T: da Yowes Retreat (fae Rams Gjo)
C: Debbie Scott
R: jig
Z: 2018 John Chambers <jc:trillian.mit.edu>
F: http://ramshaw.info/slowjamtunes/HTML/Tunes_Y/Yowes_Retreat_fae_Rams_Gjo_Da.html
M: C|
L: 1/8
K: C
CD |\
"A"EA,AE cAec | "D"fdge "A"a2de | "D"fdBc "Bm"dBGA | "B7"BGAF "E7"GECD |
"A"EA,AE cAec | "D"fdge "A"a2de | "F#m"(3agf ge "Bm"fdec | "E7"dBGB "A"A2 :|
GA |\
"E"BEBc dEBd | "A"cAeg aece | "D"fdBc "Bm"dBGA | "B7"BGAF "E7"GEGA |
"Bm"BEBc "E7"dEBd | "A"(3cBA eg aece | "D"fdBc "Bm"dBGA | "E7"BEGB "A/c#"A2"Cdim"GA |
"Bm"BEBc "E7"dEBd | "A"cAeg aece | "D"fdBc "Bm"dBGA | "B7"BGAF "E7"GECD |
"A"EA,AE cAec | "D"fd("C#7"ge "F#m"a2)fg | "F#m"(3agf ge "Bm"fdec | "E7"dBGB "A"A2 |]
